static/assets/images/protocols/gamma-strategies-mono.svg

<svg width="325" height="323" viewBox="0 0 325 323" fill="none" xmlns="http://www.w3.org/2000/svg">
<path d="M195.17 174.053C234.366 174.16 273.551 174.053 312.725 173.732C328.42 173.603 331.122 149.96 308.608 149.992C272.307 150.035 235.074 149.982 196.907 149.832C192.212 149.81 191.525 148.14 194.849 144.82C234.559 105.329 275.341 64.5533 317.196 22.4923C331.283 8.35777 314.237 -8.05759 301.725 4.43863L176.291 129.722C174.297 131.714 173.289 131.296 173.268 128.469C173.246 91.7837 173.257 55.1303 173.3 18.5089C173.332 -3.72085 150.175 -3.1105 150.111 13.4655C150.025 52.207 149.96 89.9848 149.918 126.799C149.918 130.183 148.717 130.686 146.315 128.309C120.307 102.31 94.3406 76.3749 68.4174 50.5044C58.4792 40.6424 44.7779 47.4205 48.4766 62.3582C48.7339 63.3647 49.2378 64.2428 49.9882 64.9923L130.877 145.816C133.665 148.6 133.097 149.992 129.173 149.992C92.0784 149.992 53.8585 150.003 14.5128 150.024C-1.08606 150.024 -0.185497 173.957 16.7321 173.989C54.6197 174.096 91.7568 174.128 128.144 174.085C130.695 174.064 131.07 174.953 129.269 176.752C86.6001 219.155 44.7029 261.056 3.57753 302.453C-6.10343 312.154 5.86108 325.614 15.7993 321.663C18.2008 320.699 21.7387 317.872 26.413 313.182C66.7235 272.684 107.27 232.23 148.052 191.818C149.103 190.747 149.639 190.961 149.66 192.46C150.261 230.624 150.314 268.808 149.821 307.014C149.532 329.533 173.622 325.935 173.429 310.58C172.957 270.661 172.978 230.709 173.493 190.726C173.514 189.312 174.029 189.098 175.037 190.083L263.58 278.231C264.374 279.002 265.307 279.495 266.379 279.709C278.633 281.925 287.22 268.466 277.732 259.278C249.472 231.93 221.705 204.089 194.431 175.756C193.316 174.599 193.562 174.032 195.17 174.053Z" fill="black"/>
</svg>

<svg xmlns="http://www.w3.org/2000/svg" fill="none" viewBox="0 0 325 323"><path fill="#000" d="M195.17 174.053q58.794.16 117.555-.321c15.695-.129 18.397-23.772-4.117-23.74q-54.451.065-111.701-.16-7.043-.032-2.058-5.012A33165 33165 0 0 0 317.196 22.492c14.087-14.134-2.959-30.55-15.471-18.053L176.291 129.722q-2.991 2.988-3.023-1.253-.033-55.028.032-109.96c.032-22.23-23.125-21.62-23.189-5.043q-.13 58.112-.193 113.333 0 5.076-3.603 1.51a130379 130379 0 0 0-77.898-77.805c-9.938-9.862-23.64-3.084-19.94 11.854a5.64 5.64 0 0 0 1.511 2.634l80.889 80.824q4.182 4.176-1.704 4.176-55.642 0-114.66.032c-15.6 0-14.698 23.933 2.22 23.965q56.83.16 111.411.096 3.826-.032 1.125 2.667A27705 27705 0 0 0 3.578 302.453c-9.681 9.701 2.283 23.161 12.221 19.21q3.603-1.446 10.614-8.481a24985 24985 0 0 1 121.639-121.364q1.576-1.607 1.608.642.901 57.245.161 114.554c-.289 22.519 23.801 18.921 23.608 3.566a4852 4852 0 0 1 .064-119.854q.032-2.12 1.544-.643l88.543 88.148a5.5 5.5 0 0 0 2.799 1.478c12.254 2.216 20.841-11.243 11.353-20.431a3328 3328 0 0 1-83.301-83.522q-1.673-1.735.739-1.703"/></svg>
